X: 22212
T: La Clairière
R: barndance
M: 4/4
K: Aminor
"Am" z2 A,C E D2 C/D/|E2 A,C E D2 C/D/|"C" E2 GG GA- AE/D/|"G" E2 D/D/D- DE D/C/D|
w: 1.~Tu pren- dras le p'tit che-|min, Qui mè- ne au pe- tit|bois, Et si c'est tôt _ le ma-|tin, Il fe- ra _ peut- ê- tre froid,|
"Em" z2 EE ED- D/C/D/E/|E8|"Am" z2 A,C E D2 C/D/|EA,A,C ED C/D/E-|"C" E2 GG GA- AE/D/|
w: La marche te ré- * chauf- fe- *|ra.|Tout en é- cou- tant les|bruits, Qui mar- quent le bout de la _|nuit, Tu gar- de- ras _ dans ton|
"G" E2 E/E/D/D/ DE D/C/D|"D" z2 E/E/E/E/ EDCD|"^Fine al Coda""Em" E8|"A#m" z2 AG AG A/G/A-|
w: cœur, Cha- que cou- leur _ et chaque o- deur,|Comme si c'é- tait _ la pre- mière|fois.|U- ne fleur de chè- vre- feuille,|
A2 AG AG A/G/A-|"C" A2 GG GA- AE/D/|"G" E2 D/D/D- DE D/C/D-|"D" D2 EE E/D/C- CD|"Em" E8||
w: _ S'of- fri- ra sans doute à toi,|_ Et si tu n'hé- * si- tes|pas, A goû- ter _ son nou- veau miel,|_ Elle te don- ne- ra _ des|ailes.|
"Am" A,2 ED CA,G,A,-|A,EED CA,A,C|"C" E2 ED ED E/G/D-|"D" D2 DC DE D/C/A,-|
w: Laï laï laï … * * *
"Em" A,B,A,G, E,4-|"^4 couplets, dernière fois coda" E,4 z4:|:O"Am" z2 AG AGAc-|
cA A/G/ E2 G Ac-|"Em" c2 BA BABd-|"G" de d/c/A-"D" AB A/G/E|"F" z AAG"Em" EDEA-|
[M:6/4]"Em" AB- B4- B6:|

